svgs/sharp-regular/bowl-chopsticks.svg

<svg xmlns="http://www.w3.org/2000/svg" viewBox="0 0 512 512"><!--! Font Awesome Pro 6.6.0 by @fontawesome - https://fontawesome.com License - https://fontawesome.com/license (Commercial License) Copyright 2024 Fonticons, Inc. --><path d="M0 128L0 96 512 0l0 48L0 128zm0 16l512-16 0 48L0 176l0-32zM176 464l160 0 0-20.9 26.7-13.2c55.1-27.3 93.9-82.4 97.8-147.5l.6-10.3L50.9 272l.6 10.3c3.8 65.1 42.7 120.3 97.8 147.5L176 443.1l0 20.9zM3.6 285.2L2.8 272 0 224l48.1 0 415.8 0 48.1 0-2.8 48-.8 13.2C503.5 368.1 454 438.2 384 472.9l0 39.1-48 0-160 0-48 0 0-39.1C58 438.2 8.5 368.1 3.6 285.2z"/></svg>

<svg xmlns="http://www.w3.org/2000/svg" viewBox="0 0 512 512"><!--! Font Awesome Pro 6.4.2 by @fontawesome - https://fontawesome.com License - https://fontawesome.com/license (Commercial License) Copyright 2023 Fonticons, Inc. --><path d="M0 128V96L512 0V48L0 128zm0 16l512-16v48H0V144zM176 464H336V443.1l26.7-13.2c55.1-27.3 93.9-82.4 97.8-147.5l.6-10.3H50.9l.6 10.3c3.8 65.1 42.7 120.3 97.8 147.5L176 443.1V464zM3.6 285.2L2.8 272 0 224H48.1 463.9 512l-2.8 48-.8 13.2C503.5 368.1 454 438.2 384 472.9V512H336 176 128V472.9C58 438.2 8.5 368.1 3.6 285.2z"/></svg>
